images/客户登记/u1288_selectedDisabled.svg

<svg xmlns="http://www.w3.org/2000/svg" width="12" height="12" viewBox="383 238 12 12"><path fill="#f0f0f0" d="M389 238c3.36 0 6 2.64 6 6s-2.64 6-6 6-6-2.64-6-6 2.64-6 6-6"/><path fill="none" stroke="#797979" d="M389 238.5c3.08 0 5.5 2.42 5.5 5.5s-2.42 5.5-5.5 5.5-5.5-2.42-5.5-5.5 2.42-5.5 5.5-5.5Z"/><path fill="#797979" d="M389 247c-1.68 0-3-1.32-3-3s1.32-3 3-3 3 1.32 3 3-1.32 3-3 3"/></svg>

﻿<?xml version="1.0" encoding="utf-8"?>
<svg version="1.1" xmlns:xlink="http://www.w3.org/1999/xlink" width="12px" height="12px" viewBox="383 238  12 12" xmlns="http://www.w3.org/2000/svg">
  <path d="M 389 238  C 392.36 238  395 240.64  395 244  C 395 247.36  392.36 250  389 250  C 385.64 250  383 247.36  383 244  C 383 240.64  385.64 238  389 238  Z " fill-rule="nonzero" fill="#f0f0f0" stroke="none" />
  <path d="M 389 238.5  C 392.08 238.5  394.5 240.92  394.5 244  C 394.5 247.08  392.08 249.5  389 249.5  C 385.92 249.5  383.5 247.08  383.5 244  C 383.5 240.92  385.92 238.5  389 238.5  Z " stroke-width="1" stroke="#797979" fill="none" />
  <path d="M 389 247  C 387.32 247  386 245.68  386 244  C 386 242.32  387.32 241  389 241  C 390.68 241  392 242.32  392 244  C 392 245.68  390.68 247  389 247  " fill-rule="nonzero" fill="#797979" stroke="none" />
</svg>
